outputs/icons/hardware/smart_phone_round.svg

<svg xmlns="http://www.w3.org/2000/svg" width="1200" height="1200" fill="none"><g clip-path="url(#a)"><path fill="#000" d="M850 50.5 350 50c-55 0-100 45-100 100v900c0 55 45 100 100 100h500c55 0 100-45 100-100V150c0-55-45-99.5-100-99.5m0 899.5H350V250h500z"/></g><defs><clipPath id="a"><path fill="#fff" d="M0 0h1200v1200H0z"/></clipPath></defs></svg>

<svg width="1200" height="1200" viewBox="0 0 1200 1200" fill="none" xmlns="http://www.w3.org/2000/svg"><g clip-path="url(#clip0_238_1272)"><path d="M850 50.5L350 50C295 50 250 95 250 150V1050C250 1105 295 1150 350 1150H850C905 1150 950 1105 950 1050V150C950 95 905 50.5 850 50.5ZM850 950H350V250H850V950Z" fill="#1D1E23"/></g><defs><clipPath id="clip0_238_1272"><path width="24" fill="white" d="M0 0H1200V1200H0V0z"/></clipPath></defs></svg>
